assets/images/icons/menu.svg

<svg viewBox="0 0 31 21" fill="none" xmlns="http://www.w3.org/2000/svg">
<path d="M29.5909 0.5H1.40909C0.907014 0.5 0.5 0.947715 0.5 1.5C0.5 2.05228 0.907014 2.5 1.40909 2.5H29.5909C30.093 2.5 30.5 2.05228 30.5 1.5C30.5 0.947715 30.093 0.5 29.5909 0.5Z" fill="#222222"/>
<path d="M29.5909 9.5H1.40909C0.907014 9.5 0.5 9.94772 0.5 10.5C0.5 11.0523 0.907014 11.5 1.40909 11.5H29.5909C30.093 11.5 30.5 11.0523 30.5 10.5C30.5 9.94772 30.093 9.5 29.5909 9.5Z" fill="#222222"/>
<path d="M29.5909 18.5H1.40909C0.907014 18.5 0.5 18.9477 0.5 19.5C0.5 20.0523 0.907014 20.5 1.40909 20.5H29.5909C30.093 20.5 30.5 20.0523 30.5 19.5C30.5 18.9477 30.093 18.5 29.5909 18.5Z" fill="#222222"/>
</svg>

<svg viewBox="0 0 31 21" fill="none" xmlns="http://www.w3.org/2000/svg"><path d="M29.59.5H1.41C.906.5.5.948.5 1.5s.407 1 .91 1h28.18c.503 0 .91-.448.91-1s-.407-1-.91-1zm0 9H1.41c-.503 0-.91.448-.91 1s.407 1 .91 1h28.18c.503 0 .91-.448.91-1s-.407-1-.91-1zm0 9H1.41c-.503 0-.91.448-.91 1s.407 1 .91 1h28.18c.503 0 .91-.448.91-1s-.407-1-.91-1z" fill="#222"/></svg>
